packages/kaspersky-hexa-ui-icons/src/iconsSVGs/24/StatusStopSolid.svg

<svg width="24" height="24" viewBox="0 0 24 24" fill="none" xmlns="http://www.w3.org/2000/svg">
<path fill-rule="evenodd" clip-rule="evenodd" d="M5 3C3.89543 3 3 3.89543 3 5V19C3 20.1046 3.89543 21 5 21H19C20.1046 21 21 20.1046 21 19V5C21 3.89543 20.1046 3 19 3H5ZM10 9C9.44772 9 9 9.44772 9 10V14C9 14.5523 9.44771 15 10 15L14 15C14.5523 15 15 14.5523 15 14V10C15 9.44772 14.5523 9 14 9L10 9Z" fill="black"/>
</svg>

<svg xmlns="http://www.w3.org/2000/svg" width="24" height="24" fill="none" viewBox="0 0 24 24"><path fill="#000" fill-rule="evenodd" d="M5 3c-1.1046 0-2 .8954-2 2v14c0 1.1046.8954 2 2 2h14c1.1046 0 2-.8954 2-2V5c0-1.1046-.8954-2-2-2zm5 6c-.5523 0-1 .4477-1 1v4c0 .5523.4477 1 1 1h4c.5523 0 1-.4477 1-1v-4c0-.5523-.4477-1-1-1z"/></svg>
